libs/ui/packages/crypto-icons/src/svg/GBX.svg

<svg width="24" height="24" viewBox="0 0 24 24" fill="none">
<path d="M11.7743 8.2545V9.7995H8.24925C7.79175 9.7995 7.2285 9.96 6.80925 10.257C6.2895 10.626 5.99925 11.1788 5.99925 12.0023C5.99925 12.8258 6.2895 13.3785 6.80925 13.7475C7.2285 14.0445 7.79175 14.205 8.24925 14.205H9.74925V15.75H8.24925C7.42985 15.7419 6.6318 15.4877 5.95875 15.0203C5.03775 14.3663 4.5 13.3418 4.5 12.0023C4.5 10.6628 5.03775 9.63825 5.95875 8.98425C6.63157 8.51693 7.42935 8.26267 8.2485 8.2545H11.7743ZM8.02425 12.891V11.346H11.7743V15.75H10.275V12.891H8.02425ZM14.25 9.795V8.25H19.5V15.75H12.7485V9.80025H14.2485V14.2042H18V9.79575L14.25 9.795Z" fill="#1666AF"/>
<path d="M11.7743 8.2545V9.7995H8.24925C7.79175 9.7995 7.2285 9.96 6.80925 10.257C6.2895 10.626 5.99925 11.1788 5.99925 12.0023C5.99925 12.8258 6.2895 13.3785 6.80925 13.7475C7.2285 14.0445 7.79175 14.205 8.24925 14.205H9.74925V15.75H8.24925C7.42985 15.7419 6.6318 15.4877 5.95875 15.0203C5.03775 14.3663 4.5 13.3418 4.5 12.0023C4.5 10.6628 5.03775 9.63825 5.95875 8.98425C6.63157 8.51693 7.42935 8.26267 8.2485 8.2545H11.7743ZM8.02425 12.891V11.346H11.7743V15.75H10.275V12.891H8.02425ZM14.25 9.795V8.25H19.5V15.75H12.7485V9.80025H14.2485V14.2042H18V9.79575L14.25 9.795Z" fill="#1666AF"/>
</svg>

<svg width="24" height="24" viewBox="0 0 24 24" fill="none"><path fill="#1666af" d="M11.774 8.255v1.544H8.25a2.64 2.64 0 0 0-1.44.458c-.52.369-.81.922-.81 1.745s.29 1.377.81 1.745c.42.297.983.458 1.44.458h1.5v1.545h-1.5a4.1 4.1 0 0 1-2.29-.73c-.921-.654-1.459-1.678-1.459-3.018s.538-2.364 1.459-3.018a4.1 4.1 0 0 1 2.29-.73zm-3.75 4.636v-1.545h3.75v4.404h-1.499v-2.859zm6.226-3.096V8.25h5.25v7.5h-6.751V9.8h1.5v4.404H18V9.796z"/><path fill="#1666af" d="M11.774 8.255v1.544H8.25a2.64 2.64 0 0 0-1.44.458c-.52.369-.81.922-.81 1.745s.29 1.377.81 1.745c.42.297.983.458 1.44.458h1.5v1.545h-1.5a4.1 4.1 0 0 1-2.29-.73c-.921-.654-1.459-1.678-1.459-3.018s.538-2.364 1.459-3.018a4.1 4.1 0 0 1 2.29-.73zm-3.75 4.636v-1.545h3.75v4.404h-1.499v-2.859zm6.226-3.096V8.25h5.25v7.5h-6.751V9.8h1.5v4.404H18V9.796z"/></svg>
